X:1
T:Title
%%score { ( 1 3 ) | ( 2 4 ) }
L:1/8
M:4/4
K:Bb
V:1 treble nm="Grand Piano"
V:3 treble 
V:2 bass 
V:4 bass 
V:1
 z4 z2[Q:1/4=100] [B,D][CE] | [DF][DF][DF][DF] [EG][DF][DB][FA] | GGGG [DF]2 [B,D][CE] | %3
 [DF][DF][DF][DF] [EG][DF][DB][Fd] | z4 A2 z2 | [Fd][Fd][Fd][Ec] [DB][DF][DF][DF] | %6
 [FB][FB][EA][DB] c2 FF |[M:17/16] [DB][DB][Ec][Fd][Ge][B,EG]3/2[B,EG][EGB] | %8
[M:7/8] [DFB]2 [CEA]2 [B,DB]3 |[M:1/8] [A,EF] |[M:4/4] [B,B]2 B2 z4 | %11
 [=Ec]2[K:bass][K:treble] [Ec]2 z4 | dddd edcB | B2 A2 c3 F | [B,B]2 B2 z4 | %15
 [=Ec]2[K:bass][K:treble] [Ec]2 z4 | [Fd][Fd][Fd][Fd] [Fe][Fd][Ec][GB] | %17
[M:7/8] [FB]2 [EA]2 [DB]3 |] %18
V:2
 z4 z2 [B,,F,][B,,F,] | [B,,B,][B,,B,][B,,B,][B,,B,] [B,,B,][B,,B,][B,,B,][D,B,] | %2
 [E,B,E][E,B,E][E,B,E][E,B,E] [B,,B,]2 [B,,F,][B,,F,] | %3
 [B,,B,][B,,B,][B,,B,][B,,B,] [B,,B,][B,,B,][B,,B,][B,,B,] | %4
 [C,A,][C,A,][C,G,][C,C] .[F,CF]2 [B,,B,][B,,B,] | %5
 [B,,B,][B,,B,][B,,B,][B,,B,] [B,,B,][B,,B,][B,,B,][B,,B,] | %6
 [D,B,][D,B,][C,F,][B,,F,] [F,A,E]2 [F,A,E][F,A,E] | %7
[M:17/16] [B,,B,][B,,B,][C,B,][B,,B,][E,B,]E,3/2E,E, |[M:7/8] F,2 F,2 B,,3 |[M:1/8] F, | %10
[M:4/4] z2 G,2 z4 | .[C,B,]2 [C,G,]C, [F,A,F]3 [F,A,] | %12
 [B,F][B,F][B,F][B,F] [B,G][B,F][K:bass][B,E][B,D] | [F,CE]2 [F,CE]2 [F,A,E]3 [F,A,E] | z2 G,2 z4 | %15
 .[C,B,]2 [C,G,]C, [F,A,F]3 [F,A,] | [B,,B,][B,,B,][B,,B,][B,,B,] [C,A,][D,B,][E,G,][E,E] | %17
[M:7/8] [F,D]2 [F,C]2 [B,,B,]3 |] %18
V:3
 x8 | x8 | x8 | x8 | [Fd][Fc][=Ec][EB] z _E[DB][Ec] | x8 | x8 |[M:17/16] x17/2 |[M:7/8] x7 | %9
[M:1/8] x |[M:4/4] DDEE [DB]3 [EF] | z[K:bass] [C,A,][K:treble] z B, c3 F | x8 | x8 | %14
 DDEE [DB]3 [EF] | z[K:bass] [C,A,][K:treble] z B, c3 F | x8 |[M:7/8] x7 |] %18
V:4
 x8 | x8 | x8 | x8 | x8 | x8 | x8 |[M:17/16] x17/2 |[M:7/8] x7 |[M:1/8] x | %10
[M:4/4] B,,B,,B,,B,, [B,,F,]3 [F,A,] | x8 | x6[K:bass] x2 | x8 | B,,B,,B,,B,, [B,,F,]3 [F,A,] | %15
 x8 | x8 |[M:7/8] x7 |] %18

